!!!COM: Corelli, Arcangelo
!!!OTL: Sonate a tre [in G]
!!!XEN: Trio Sonata Opus 1, No. 9
!!!OPS: Opus 1
!!!ONM: No. 9
!!!OMV: Movement 2.
!!!YEC: Copyright 1994, Center for Computer Assisted Research in the Humanities
!!!YEM: Rights to all derivative electronic formats reserved.
!!!YEM: Refer to licensing agreement for further details.
!! For the following instrumentation: Violino I & II, Violone/Archlute,
!!    and Organo.
!! Adagio.
**kern	**kern	**kern	**kern
*ICklav	*ICstr	*ICstr	*ICstr
*Iorgan	*Icello	*Ivioln	*Ivioln
*	*Iarchl	*	*
!Organo	!Violone	!Violin 2	!Violin 1
!	! or	!	!
!	!Archlute	!	!
*>[A,A,B,B]	*>[A,A,B,B]	*>[A,A,B,B]	*>[A,A,B,B]
*>A	*>A	*>A	*>A
*clefF4	*clefF4	*clefG2	*clefG2
*k[]	*k[]	*k[]	*k[]
*G:	*G:	*G:	*G:
*M4/4	*M4/4	*M4/4	*M4/4
*MM56	*MM56	*MM56	*MM56
=1-	=1-	=1-	=1-
[2D\	[2D\	4r	2r
.	.	4dd\	.
2D\]	2D\]	4cc\	4r
.	.	4b\	4dd\
=2	=2	=2	=2
2.D\	2.D\	4a/	4cc\
.	.	4g/	4b\
.	.	4f#/	4a/
4BB/	4BB/	4d/	[4dd\
=3	=3	=3	=3
2C/	2C/	8e/L	4dd\]
.	.	(16f#/L	.
.	.	16g/JJ)	.
.	.	8.a/L	2cc\
.	.	16g/Jk	.
2D\	2D\	8f#/L	.
.	.	8d/J	.
.	.	[4g/	4b\
=4	=4	=4	=4
2DD/	2DD/	4g/]	2a/
.	.	4f#/	.
2GG/	2GG/	2g/	2g/
=5||	=5||	=5||	=5||
!! Allegro.
*MM80	*MM80	*MM80	*MM80
*M4/4	*M4/4	*M4/4	*M4/4
*>B	*>B	*>B	*>B
4GG/	1r	1r	4g/
2G\	.	.	16r
.	.	.	16g/LL
.	.	.	16a/
.	.	.	16b/JJ
.	.	.	8cc\L
.	.	.	8b\J
4F#\	.	.	8a\L
.	.	.	(16dd\L
.	.	.	16cc\JJ)
=6	=6	=6	=6
2G\	1r	1r	8b\L
.	.	.	8g\
.	.	.	8dd\
.	.	.	8b\J
4.BB/	.	.	8gg\L
.	.	.	8dd\J
.	.	.	8bb\L
8C#/	.	.	(16aa\L
.	.	.	16gg\JJ)
=7	=7	=7	=7
4D\	1r	4dd\	8ff#\L
.	.	.	8a\J
4F#\	.	16r	2dd\
.	.	16dd\LL	.
.	.	16ee\	.
.	.	16ff#\JJ	.
4E\	.	8gg\L	.
.	.	8ff#\J	.
4AA/	.	8ee\L	4cc#\
.	.	(16aa\L	.
.	.	16gg\JJ)	.
=8	=8	=8	=8
2D\	1r	8ff#\L	8dd\L
.	.	8dd\	8a\
.	.	8ddd\	8ff#\
.	.	8bb\J	8dd\J
2AA/	.	8ccc\L	8ee\L
.	.	8aa\J	8cc\
.	.	8ccc\L	8ee\
.	.	(16ddd\L	8ff#\J
.	.	16ccc\JJ)	.
=9	=9	=9	=9
4GG/	4GG/	8bb\L	4.gg\
.	.	8dd\J	.
16r	16r	2gg\	.
16GG/LL	16GG/LL	.	.
16AA/	16AA/	.	8dd\
16BB/JJ	16BB/JJ	.	.
8C/L	8C/L	.	8ee\L
8BB/J	8BB/J	.	8dd\J
8AA/L	8AA/L	4ff#\	8cc\L
(16D/L	(16D/L	.	(16b\L
16C/JJ)	16C/JJ)	.	16a\JJ)
=10	=10	=10	=10
8BB/L	8BB/L	8gg\L	4b\
8GG/	8GG/	8dd\J	.
8BB/	8BB/	8gg\L	4r
8C#/J	8C#/J	(16aa\L	.
.	.	16gg\JJ)	.
4D\	4D\	8ff#\L	4d/
.	.	8a\J	.
4F#\	4F#\	[4dd\	16r
.	.	.	16d/LL
.	.	.	16e/
.	.	.	16f#/JJ
=11	=11	=11	=11
8E\L	8E\L	4dd\]	8g/L
(16F#\L	(16F#\L	.	8f#/J
16G\JJ)	16G\JJ)	.	.
8A\L	8A\L	4cc#\	8e/L
8AA\J	8AA\J	.	(16a/L
.	.	.	16g/JJ)
4D\	4D\	4dd\	8f#/L
.	.	.	8d/J
8r	8r	4r	[4dd\
8B\	8B\	.	.
=12	=12	=12	=12
8G\L	8G\L	2ee\	4dd\]
8E\J	8E\J	.	.
8r	8r	.	[4cc\
8A\	8A\	.	.
8F#\L	8F#\L	4.dd\	8cc/L]
8D\J	8D\J	.	8f#/J
8r	8r	.	[4b\
8G\	8G\	8ee\	.
=13	=13	=13	=13
8E\L	8E\L	4.cc\	8b/L]
8C\J	8C\J	.	8e/J
8r	8r	.	[4a/
8F#\	8F#\	8dd\	.
8D/L	8D/L	4.b\	8a/L]
8BB/J	8BB/J	.	8d/J
8r	8r	.	[4g/
8E\	8E\	8cc\	.
=14	=14	=14	=14
8C/L	8C/L	2a/	4g/]
8AA/	8AA/	.	.
8D/	8D/	.	4f#/
8DD/J	8DD/J	.	.
4GG/	4GG/	4g/	16g\LL
.	.	.	16dd\
.	.	.	16ee\
.	.	.	16ff#\JJ
4BB/	4BB/	16r	8gg\L
.	.	16g/LL	.
.	.	16a/	8gg\J
.	.	16b/JJ	.
=15	=15	=15	=15
4AA/	4AA/	8cc\L	4gg\
.	.	8b\J	.
4D\	4D\	8a\L	4ff#\
.	.	(16dd\L	.
.	.	16cc\JJ)	.
4GG/	4GG/	8b/L	4gg\
.	.	8g/J	.
4G\	4G\	[4ee\	4r
=16	=16	=16	=16
4.F#\	4.F#\	8ee\L]	4.aa\
.	.	8a\J	.
.	.	2dd\	.
8F#\	8F#\	.	(16bb\LL
.	.	.	16aa\JJ)
4E\	4E\	.	4.gg\
4AA/	4AA/	4cc#\	.
.	.	.	(16aa\LL
.	.	.	16gg\JJ)
=17	=17	=17	=17
4D\	4D\	4.dd\	8ff#\L
.	.	.	8a\J
16r	16r	.	2dd\
16D\LL	16D\LL	.	.
16E\	16E\	8a/	.
16F#\JJ	16F#\JJ	.	.
8G\L	8G\L	8b/L	.
8F#\J	8F#\J	8a/J	.
8E\L	8E\L	8g/L	4cc#\
16A\L	16A\L	(16f#/L	.
16G\JJ	16G\JJ	16e/JJ)	.
=18	=18	=18	=18
8F#\L	8F#\L	4d/	16dd\LL
.	.	.	16ff#\
8D\J	8D\J	.	16aa\
.	.	.	16ff#\JJ
8r	8r	16r	4bb\
.	.	16b\LL	.
8D\	8D\	16dd\	.
.	.	16b\JJ	.
4C/	4C/	4ee\	16r
.	.	.	16ee\LL
.	.	.	16gg\
.	.	.	16ee\JJ
8r	8r	16r	4aa\
.	.	16a\LL	.
8C/	8C/	16cc\	.
.	.	16a\JJ	.
=19	=19	=19	=19
4BB/	4BB/	4dd\	16r
.	.	.	16dd\LL
.	.	.	16ff#\
.	.	.	16dd\JJ
8r	8r	16r	[4gg\
.	.	16g/LL	.
8BB/	8BB/	16b/	.
.	.	16g/JJ	.
4AA/	4AA/	4cc\	8gg\L]
.	.	.	(16aa\L
.	.	.	16gg\JJ)
4D\	4D\	8r	8ff#\L
.	.	16dd\LL	(16gg\L
.	.	16cc\JJ	16aa\JJ)
=20	=20	=20	=20
4GG/	4GG/	4b\	16gg\LL
.	.	.	16b\
.	.	.	16dd\
.	.	.	16b\JJ
8r	8r	16r	[4ee\
.	.	16e/LL	.
8G\	8G\	16g/	.
.	.	16e/JJ	.
4F#\	4F#\	4a/	8ee\L]
.	.	.	(16ff#\L
.	.	.	16ee\JJ)
4BB/	4BB/	8r	8.dd#\L
.	.	16b/LL	.
.	.	16a/JJ	16dd#\Jk
=21	=21	=21	=21
4.E\	4.E\	4.g/	8ee\L
.	.	.	8b\J
.	.	.	[4gg\
8G\	8G\	8b\	.
4.A\	4.A\	4.cc\	8gg\L]
.	.	.	16aa\L
.	.	.	16gg\JJ
.	.	.	[4ff\
8B\	8B\	8dd\	.
=22	=22	=22	=22
4.c\	4.c\	4.g/	8ff\L]
.	.	.	(16gg\L
.	.	.	16ff\JJ)
.	.	.	2ee\
8G\	8G\	8b\	.
4A\	4A\	(16cc/LL	.
.	.	16b/)	.
.	.	(16a/	.
.	.	16g/JJ)	.
4B\	4B\	8.f#/L	8.ee\L
.	.	16f#/Jk	16dd#\Jk
=23	=23	=23	=23
4E\	4E\	8e/L	4ee\
.	.	8b/J	.
4G\	4G\	2ee\	16r
.	.	.	16ee\LL
.	.	.	16ff#\
.	.	.	16gg\JJ
4F#\	4F#\	.	8aa\L
.	.	.	8gg\J
4BB/	4BB/	4dd#\	8ff#\L
.	.	.	(16bb\L
.	.	.	16aa\JJ)
=24	=24	=24	=24
4E\	4E\	4.ee\	8gg\L
.	.	.	8ee\J
8r	8r	.	[4ccc\
8E\	8E\	8gg\	.
4D\	4D\	4.ff#\	8ccc\L]
.	.	.	8ff#\J
8r	8r	.	[4bb\
8D\	8D\	(16gg\LL	.
.	.	16ff#\JJ)	.
=25	=25	=25	=25
4C/	4C/	4.ee\	8bb\L]
.	.	.	8ee\J
8r	8r	.	[4aa\
8C/	8C/	(16ff#\LL	.
.	.	16ee\JJ)	.
4BB/	4BB/	4.dd\	8aa\L]
.	.	.	8dd\J
8r	8r	.	[4gg\
8BB/	8BB/	(16ee\LL	.
.	.	16dd\JJ)	.
=26	=26	=26	=26
4AA/	4AA/	4cc\	8gg\L]
.	.	.	(16aa\L
.	.	.	16gg\JJ)
4D\	4D\	8r	8.ff#\L
.	.	16dd\LL	.
.	.	16cc\JJ	16ff#\Jk
4GG/	4GG/	8b\L	4.gg\
.	.	8b\J	.
8r	8r	[4ee\	.
8G\	8G\	.	8bb\
=27	=27	=27	=27
4F#\	4F#\	8ee\L]	4.aa\
.	.	8a\J	.
8r	8r	2dd\	.
8F#\	8F#\	.	(16bb\LL
.	.	.	16aa\JJ)
4E\	4E\	.	4gg\
4AA/	4AA/	4cc#\	8r
.	.	.	(16aa\LL
.	.	.	16gg\JJ)
=28	=28	=28	=28
4D\	4D\	4dd\	4ff#\
8r	8r	2aa\	4r
8f#\	8f#\	.	.
8d\L	8d\L	.	2bb\
8B\J	8B\J	.	.
8r	8r	[4gg\	.
8e\	8e\	.	.
=29	=29	=29	=29
8c#\L	8c#\L	8gg\L]	4.aa\
8A\J	8A\J	8cc#\J	.
8r	8r	[4ff#\	.
8d\	8d\	.	(16bb\LL
.	.	.	16aa\JJ)
8B\L	8B\L	8ff#\L]	4.gg\
8G\J	8G\J	8b\J	.
8r	8r	[4ee\	.
8c#\	8c#\	.	(16aa\LL
.	.	.	16gg\JJ)
=30	=30	=30	=30
8A\L	8A\L	8ee\L]	4.ff#\
8F#\J	8F#\J	8a\J	.
8r	8r	2dd\	.
8B\	8B\	.	(16gg\LL
.	.	.	16ff#\JJ)
8G\L	8G\L	.	4.ee\
8E\	8E\	.	.
8A\	8A\	4cc#\	.
8AA\J	8AA\J	.	8ee\
=31	=31	=31	=31
4D\	4D\	4.dd\	16ff#\LL
.	.	.	16a\
.	.	.	16b\
.	.	.	16cc#\JJ
16r	16r	.	8dd\L
16D\LL	16D\LL	.	.
16E\	16E\	8a/	8dd\J
16F#\JJ	16F#\JJ	.	.
8G\L	8G\L	16b\LL	4dd\
.	.	16dd\	.
8F#\J	8F#\J	16ee\	.
.	.	16ff#\JJ	.
8E\L	8E\L	8gg\L	4cc#\
16A\L	16A\L	8ee\J	.
16G\JJ	16G\JJ	.	.
=32	=32	=32	=32
8F#\L	8F#\L	4ff#\	8dd\L
8D\J	8D\J	.	(16dd\L
.	.	.	16cc\JJ)
2G\	2G\	16r	8b\L
.	.	16g/LL	.
.	.	16a/	(16cc\L
.	.	16b/JJ	16b\JJ)
.	.	8cc\L	4.a/
.	.	8b\J	.
4F#\	4F#\	8a\L	.
.	.	(16dd\L	8a/
.	.	16cc\JJ)	.
=33	=33	=33	=33
4G\	4G\	8b/L	4d/
.	.	8g/J	.
4F#\	4F#\	2dd\	16r
.	.	.	16dd\LL
.	.	.	16ee\
.	.	.	16ff#\JJ
2E\	2E\	.	8gg\L
.	.	.	8ff#\J
.	.	[4cc\	8ee\L
.	.	.	(16aa\L
.	.	.	16gg\JJ)
=34	=34	=34	=34
4D\	4D\	4cc\]	8ff#\L
.	.	.	8dd\J
4E\	4E\	4b\	2gg\
4C/	4C/	2a/	.
4D\	4D\	.	4ff#\
=35	=35	=35	=35
4GG/	4GG/	4g/	16gg\LL
.	.	.	16b\
.	.	.	16dd\
.	.	.	16b\JJ
8r	8r	16r	4ee\
.	.	16e/LL	.
8G\	8G\	16g/	.
.	.	16e/JJ	.
4F#\	4F#\	4a/	16r
.	.	.	16a\LL
.	.	.	16cc#\
.	.	.	16a\JJ
8r	8r	16r	4dd\
.	.	16d/LL	.
8F#\	8F#\	16f#/	.
.	.	16d/JJ	.
=36	=36	=36	=36
4E\	4E\	4g/	16r
.	.	.	16g/LL
.	.	.	16b/
.	.	.	16g/JJ
8r	8r	16r	2cc\
.	.	16c/LL	.
8E\	8E\	16e/	.
.	.	16c/JJ	.
2D\	2D\	8f#/L	.
.	.	8d/J	.
.	.	[4g/	4b\
=37	=37	=37	=37
2DD/	2DD/	4g/]	2a/
.	.	4f#/	.
2GG/	2GG/	2g/	2g/
==	==	==	==
*-	*-	*-	*-
!!!CDT: 1653/2/17/-1713/1/8
!!!OCY: Italia
!!!ODE: Queen Christina Alexandra of Sweden
!!!ODT: 1681//
!!!OPC: Roma; Rome
!!!AGN: trio sonata
!!!AST: baroque, chamber
!!!AMT: simple quadruple
!!!YOR1: J. Joachim & F. Chrysander (eds.) Les Oeuvre de Arcangelo Corelli
!!!YOR2: London: Augener & Co. 1871
!!!YOY: 1871
!!!AIN: archl cello organ violn
!!!EEV: 1.1
!!!RDT: 1993 September 15
!!!YER: 1994 December 14
!!!EMD: 1996 July 9
!!!YEN: United States of America
!!!EFL: 2/4
!!!ENC: Frances Bennion & Steven Rasmussen
!!!EED: W.B. Hewlett
!!!VTS: 1618958721
